Newaita-dark/apps/48/hp-logo.svg

<svg height="48pt" viewBox="0 0 48 48" width="48pt" xmlns="http://www.w3.org/2000/svg" xmlns:xlink="http://www.w3.org/1999/xlink"><linearGradient id="a" gradientUnits="userSpaceOnUse" x1="23.81478" x2="23.81478" y1="42.0509045" y2="44.03547050005"><stop offset="0" stop-opacity=".27451"/><stop offset="1" stop-opacity="0"/></linearGradient><linearGradient id="b"><stop offset="0" stop-opacity=".313725"/><stop offset=".222222" stop-opacity=".27451"/><stop offset="1" stop-opacity="0"/></linearGradient><radialGradient id="c" cx="450.908936" cy="189.579361" gradientTransform="matrix(.00000026 -.117199 -.210958 -.00000015 79.684395 95.392999)" gradientUnits="userSpaceOnUse" r="21.166656" xlink:href="#b"/><radialGradient id="d" cx="450.908936" cy="189.579361" gradientTransform="matrix(-.00000026 .117199 .210958 .00000015 -31.80678 -11.291218)" gradientUnits="userSpaceOnUse" r="21.166656" xlink:href="#b"/><radialGradient id="e" cx="450.908936" cy="189.579361" gradientTransform="matrix(-.00000026 -.117199 .210958 -.00000015 -31.80678 95.392999)" gradientUnits="userSpaceOnUse" r="21.166656" xlink:href="#b"/><radialGradient id="f" cx="450.908936" cy="189.579361" gradientTransform="matrix(.00000026 .117199 -.210958 .00000015 79.684393 -11.291219)" gradientUnits="userSpaceOnUse" r="21.166656" xlink:href="#b"/><linearGradient id="g"><stop offset="0" stop-color="#2196f3"/><stop offset="1" stop-color="#42a5f5"/></linearGradient><linearGradient id="h" gradientUnits="userSpaceOnUse" x1="23.814786" x2="23.814786" xlink:href="#g" y1="42.0509005" y2="4.34415549995"/><linearGradient id="i" gradientUnits="userSpaceOnUse" x1="960.000133" x2="960.00007630708" y1="175.11810581626" y2="1695.11824283463"><stop offset="0" stop-color="#e0e0e0"/><stop offset="1" stop-color="#eee"/></linearGradient><linearGradient id="j" gradientUnits="userSpaceOnUse" x1="879.99989186093" x2="879.99989186093" xlink:href="#g" y1="1535.11811379638" y2="335.11818095003"/><path d="m7.691406 42.050781h32.496094v1.984375h-32.496094zm0 0" fill="url(#a)"/><path d="m40.1875 42.050781h3.96875v-1.984375h-3.96875zm0 0" fill="url(#c)"/><path d="m7.691406 42.050781h-3.96875v1.984375h3.96875zm0 0" fill="url(#d)"/><path d="m7.691406 42.050781h-3.96875v-1.984375h3.96875zm0 0" fill="url(#e)"/><path d="m40.1875 42.050781h3.96875v1.984375h-3.96875zm0 0" fill="url(#f)"/><path d="m5.457031 4.34375c-.023437 0-.050781 0-.078125.003906-.050781 0-.097656.007813-.148437.011719-.074219.011719-.148438.03125-.214844.050781-.046875.015625-.09375.03125-.136719.050782-.089844.039062-.175781.082031-.253906.136718-.039062.027344-.078125.054688-.117188.085938-.035156.03125-.070312.0625-.105468.09375-.03125.035156-.0625.070312-.09375.105468-.015625.019532-.03125.039063-.042969.058594-.03125.039063-.058594.078125-.082031.117188-.035156.0625-.070313.125-.097656.195312-.007813.019532-.019532.042969-.027344.066406-.007813.023438-.015625.046876-.023438.070313-.007812.023437-.011718.046875-.019531.070313-.011719.046874-.023437.09375-.03125.144531 0 .023437-.003906.050781-.007813.074219-.003906.050781-.007812.101562-.007812.152343v34.730469c0 .824219.664062 1.488281 1.488281 1.488281h36.714844c.824219 0 1.488281-.664062 1.488281-1.488281v-34.730469c0-.308593-.09375-.59375-.253906-.832031-.027344-.039062-.054688-.078125-.085938-.117188-.027343-.035156-.0625-.070312-.09375-.105468-.035156-.03125-.070312-.0625-.105468-.09375-.039063-.03125-.078125-.058594-.117188-.085938-.078125-.054687-.164062-.097656-.25-.136718-.046875-.019532-.089844-.035157-.136718-.050782-.070313-.019531-.144532-.039062-.21875-.050781-.046876-.003906-.097657-.011719-.148438-.011719-.027344-.003906-.050781-.003906-.078125-.003906zm0 0" fill="url(#h)"/><path d="m790.00334 175.101398-112.272749 322.803837c-143.29341 92.432122-237.772582 253.361645-237.772582 437.281099 0 205.964594 118.728826 383.270506 291.783175 467.514434l-101.722574 292.413036h299.971369l84.401394-242.811471c262.337166-27.084029 465.624851-247.535429 465.624851-517.115999 0-272.729876-207.696713-495.070859-474.127977-518.060791l84.086463-242.024145zm0 0" fill="url(#i)" stroke="#212121" stroke-linecap="round" stroke-linejoin="round" stroke-width="11.338583" transform="scale(.0248071)"/><path d="m5.457031 4.34375c-.824219 0-1.488281.664062-1.488281 1.488281v.25c0-.824219.664062-1.488281 1.488281-1.488281h36.714844c.824219 0 1.488281.664062 1.488281 1.488281v-.25c0-.824219-.664062-1.488281-1.488281-1.488281zm0 0" fill="#fff" fill-opacity=".392157"/><path d="m5.457031 42.050781c-.824219 0-1.488281-.664062-1.488281-1.488281v-.25c0 .824219.664062 1.488281 1.488281 1.488281h36.714844c.824219 0 1.488281-.664062 1.488281-1.488281v.25c0 .824219-.664062 1.488281-1.488281 1.488281zm0 0" fill="#030303" fill-opacity=".235294"/><path d="m5.457031 4.203125c-.898437 0-1.628906.730469-1.628906 1.628906v34.730469c0 .898438.730469 1.628906 1.628906 1.628906h36.714844c.898437 0 1.628906-.730468 1.628906-1.628906v-34.730469c0-.898437-.730469-1.628906-1.628906-1.628906zm0 .28125h36.714844c.75 0 1.347656.597656 1.347656 1.347656v34.730469c0 .75-.597656 1.347656-1.347656 1.347656h-36.714844c-.75 0-1.347656-.597656-1.347656-1.347656v-34.730469c0-.75.597656-1.347656 1.347656-1.347656zm0 0" fill="#212121"/><path d="m830.786849 335.086129c-78.102782 225.647755-199.036121 595.376246-272.414945 798.978861 5.668751 1.574653 11.180036.944792 17.006251 1.102257 32.122919-.31493 64.245837 0 96.526221 0 4.251562 0 3.779166-6.298611 5.66875-9.132986 38.578995-109.123444 83.299136-232.733693 122.193062-341.857136 2.361979-6.771008 4.881424-14.014411 8.030729-20.470488 20.155557.314931 39.996183-.31493 60.15174 0-42.200697 118.413895-89.755213 252.416854-132.585771 370.358353 4.566493 1.732118 8.975521.944792 13.69948 1.102257 33.697571-.31493 67.237677.472396 100.935248 0 38.106599-107.54879 82.984206-229.899317 121.24827-337.448108 8.188195-21.887675 9.290452-50.073961-4.566493-68.025003-29.446008-38.264065-94.951567-44.562676-137.309729-46.137329 25.351911-72.119101 82.82674-240.921888 119.831082-348.470678zm245.960777 364.059741c-.787326 1.732118-1.417188 6.141146-2.204514 7.873264-75.583337 212.105741-206.751921 586.558191-293.042897 828.10994h96.053824c46.76719-125.972229 118.25643-319.182135 146.915112-399.017035 42.043231-.944792 83.928998-.472396 126.129694-1.259722 26.769099-.944792 67.080212-17.006251 76.055733-43.145489 35.587155-99.990456 71.016844-199.036121 105.501742-299.656439 5.66875-15.116668 8.975521-31.807988 4.566493-47.554517-6.141146-20.155556-24.407119-35.429689-44.247745-40.940974-17.163716-5.35382-34.484898-2.99184-52.278475-3.306771-54.010593-.157465-109.438374-.629861-163.448967-1.102257zm96.52622 63.45851c18.895835.472396 39.208857-.157465 56.687503.157466-36.217015 103.454693-73.063892 207.066851-108.808512 310.836474-20.313022 1.417188-41.09844.157466-61.411462 0 36.846877-102.824831 73.221358-205.649663 110.068235-308.789426.787327-.944791 1.259722-1.732118 3.464236-2.204514zm0 0" fill="url(#j)" stroke="#212121" stroke-width="11.338583" transform="scale(.0248071)"/></svg>

<?xml version="1.0" encoding="UTF-8"?>
<svg xmlns="http://www.w3.org/2000/svg" xmlns:xlink="http://www.w3.org/1999/xlink" width="48pt" height="48pt" viewBox="0 0 48 48" version="1.1">
<defs>
<linearGradient id="linear0" gradientUnits="userSpaceOnUse" x1="254" y1="233.5" x2="254" y2="254.666672" gradientTransform="matrix(0.093759,0,0,0.093759,-0.00000572259,20.158178)">
<stop offset="0" style="stop-color:rgb(0%,0%,0%);stop-opacity:0.27451;"/>
<stop offset="1" style="stop-color:rgb(0%,0%,0%);stop-opacity:0;"/>
</linearGradient>
<radialGradient id="radial0" gradientUnits="userSpaceOnUse" cx="450.908936" cy="189.579361" fx="450.908936" fy="189.579361" r="21.166656" gradientTransform="matrix(0.000000261256,-0.117199,-0.210958,-0.000000152308,79.684395,95.392999)">
<stop offset="0" style="stop-color:rgb(0%,0%,0%);stop-opacity:0.313725;"/>
<stop offset="0.222222" style="stop-color:rgb(0%,0%,0%);stop-opacity:0.27451;"/>
<stop offset="1" style="stop-color:rgb(0%,0%,0%);stop-opacity:0;"/>
</radialGradient>
<radialGradient id="radial1" gradientUnits="userSpaceOnUse" cx="450.908936" cy="189.579361" fx="450.908936" fy="189.579361" r="21.166656" gradientTransform="matrix(-0.000000261256,0.117199,0.210958,0.000000152308,-31.80678,-11.291218)">
<stop offset="0" style="stop-color:rgb(0%,0%,0%);stop-opacity:0.313725;"/>
<stop offset="0.222222" style="stop-color:rgb(0%,0%,0%);stop-opacity:0.27451;"/>
<stop offset="1" style="stop-color:rgb(0%,0%,0%);stop-opacity:0;"/>
</radialGradient>
<radialGradient id="radial2" gradientUnits="userSpaceOnUse" cx="450.908936" cy="189.579361" fx="450.908936" fy="189.579361" r="21.166656" gradientTransform="matrix(-0.000000261256,-0.117199,0.210958,-0.000000152308,-31.80678,95.392999)">
<stop offset="0" style="stop-color:rgb(0%,0%,0%);stop-opacity:0.313725;"/>
<stop offset="0.222222" style="stop-color:rgb(0%,0%,0%);stop-opacity:0.27451;"/>
<stop offset="1" style="stop-color:rgb(0%,0%,0%);stop-opacity:0;"/>
</radialGradient>
<radialGradient id="radial3" gradientUnits="userSpaceOnUse" cx="450.908936" cy="189.579361" fx="450.908936" fy="189.579361" r="21.166656" gradientTransform="matrix(0.000000261256,0.117199,-0.210958,0.000000152308,79.684393,-11.291219)">
<stop offset="0" style="stop-color:rgb(0%,0%,0%);stop-opacity:0.313725;"/>
<stop offset="0.222222" style="stop-color:rgb(0%,0%,0%);stop-opacity:0.27451;"/>
<stop offset="1" style="stop-color:rgb(0%,0%,0%);stop-opacity:0;"/>
</radialGradient>
<linearGradient id="linear1" gradientUnits="userSpaceOnUse" x1="254" y1="233.5" x2="254" y2="-168.666672" gradientTransform="matrix(0.093759,0,0,0.093759,0,20.158174)">
<stop offset="0" style="stop-color:rgb(12.941176%,58.823529%,95.294118%);stop-opacity:1;"/>
<stop offset="1" style="stop-color:rgb(25.882353%,64.705882%,96.078431%);stop-opacity:1;"/>
</linearGradient>
<linearGradient id="linear2" gradientUnits="userSpaceOnUse" x1="254" y1="-168.666687" x2="253.999985" y2="233.499969" gradientTransform="matrix(3.779528,0,0,3.779528,0.0000208025,812.598572)">
<stop offset="0" style="stop-color:rgb(87.843137%,87.843137%,87.843137%);stop-opacity:1;"/>
<stop offset="1" style="stop-color:rgb(93.333333%,93.333333%,93.333333%);stop-opacity:1;"/>
</linearGradient>
<linearGradient id="linear3" gradientUnits="userSpaceOnUse" x1="232.370163" y1="183.329132" x2="232.370163" y2="-120.774887" gradientTransform="matrix(3.946018,0,0,3.946018,-36.936954,811.698059)">
<stop offset="0" style="stop-color:rgb(12.941176%,58.823529%,95.294118%);stop-opacity:1;"/>
<stop offset="1" style="stop-color:rgb(25.882353%,64.705882%,96.078431%);stop-opacity:1;"/>
</linearGradient>
</defs>
<g id="surface1">
<path style=" stroke:none;fill-rule:nonzero;fill:url(#linear0);" d="M 7.691406 42.050781 L 40.1875 42.050781 L 40.1875 44.035156 L 7.691406 44.035156 Z M 7.691406 42.050781 "/>
<path style=" stroke:none;fill-rule:nonzero;fill:url(#radial0);" d="M 40.1875 42.050781 L 44.15625 42.050781 L 44.15625 40.066406 L 40.1875 40.066406 Z M 40.1875 42.050781 "/>
<path style=" stroke:none;fill-rule:nonzero;fill:url(#radial1);" d="M 7.691406 42.050781 L 3.722656 42.050781 L 3.722656 44.035156 L 7.691406 44.035156 Z M 7.691406 42.050781 "/>
<path style=" stroke:none;fill-rule:nonzero;fill:url(#radial2);" d="M 7.691406 42.050781 L 3.722656 42.050781 L 3.722656 40.066406 L 7.691406 40.066406 Z M 7.691406 42.050781 "/>
<path style=" stroke:none;fill-rule:nonzero;fill:url(#radial3);" d="M 40.1875 42.050781 L 44.15625 42.050781 L 44.15625 44.035156 L 40.1875 44.035156 Z M 40.1875 42.050781 "/>
<path style=" stroke:none;fill-rule:nonzero;fill:url(#linear1);" d="M 5.457031 4.34375 C 5.433594 4.34375 5.40625 4.34375 5.378906 4.347656 C 5.328125 4.347656 5.28125 4.355469 5.230469 4.359375 C 5.15625 4.371094 5.082031 4.390625 5.015625 4.410156 C 4.96875 4.425781 4.921875 4.441406 4.878906 4.460938 C 4.789062 4.5 4.703125 4.542969 4.625 4.597656 C 4.585938 4.625 4.546875 4.652344 4.507812 4.683594 C 4.472656 4.714844 4.4375 4.746094 4.402344 4.777344 C 4.371094 4.8125 4.339844 4.847656 4.308594 4.882812 C 4.292969 4.902344 4.277344 4.921875 4.265625 4.941406 C 4.234375 4.980469 4.207031 5.019531 4.183594 5.058594 C 4.148438 5.121094 4.113281 5.183594 4.085938 5.253906 C 4.078125 5.273438 4.066406 5.296875 4.058594 5.320312 C 4.050781 5.34375 4.042969 5.367188 4.035156 5.390625 C 4.027344 5.414062 4.023438 5.4375 4.015625 5.460938 C 4.003906 5.507812 3.992188 5.554688 3.984375 5.605469 C 3.984375 5.628906 3.980469 5.65625 3.976562 5.679688 C 3.972656 5.730469 3.96875 5.78125 3.96875 5.832031 L 3.96875 40.5625 C 3.96875 41.386719 4.632812 42.050781 5.457031 42.050781 L 42.171875 42.050781 C 42.996094 42.050781 43.660156 41.386719 43.660156 40.5625 L 43.660156 5.832031 C 43.660156 5.523438 43.566406 5.238281 43.40625 5 C 43.378906 4.960938 43.351562 4.921875 43.320312 4.882812 C 43.292969 4.847656 43.257812 4.8125 43.226562 4.777344 C 43.191406 4.746094 43.15625 4.714844 43.121094 4.683594 C 43.082031 4.652344 43.042969 4.625 43.003906 4.597656 C 42.925781 4.542969 42.839844 4.5 42.753906 4.460938 C 42.707031 4.441406 42.664062 4.425781 42.617188 4.410156 C 42.546875 4.390625 42.472656 4.371094 42.398438 4.359375 C 42.351562 4.355469 42.300781 4.347656 42.25 4.347656 C 42.222656 4.34375 42.199219 4.34375 42.171875 4.34375 Z M 5.457031 4.34375 "/>
<path style="fill-rule:nonzero;fill:url(#linear2);stroke-width:11.338583;stroke-linecap:round;stroke-linejoin:round;stroke:rgb(12.941177%,12.941177%,12.941177%);stroke-opacity:1;stroke-miterlimit:4;" d="M 790.00334 175.101398 L 677.730591 497.905235 C 534.437181 590.337357 439.958009 751.26688 439.958009 935.186334 C 439.958009 1141.150928 558.686835 1318.45684 731.741184 1402.700768 L 630.01861 1695.113804 L 929.989979 1695.113804 L 1014.391373 1452.302333 C 1276.728539 1425.218304 1480.016224 1204.766904 1480.016224 935.186334 C 1480.016224 662.456458 1272.319511 440.115475 1005.888247 417.125543 L 1089.97471 175.101398 Z M 790.00334 175.101398 " transform="matrix(0.0248071,0,0,0.0248071,0,0)"/>
<path style=" stroke:none;fill-rule:nonzero;fill:rgb(100%,100%,100%);fill-opacity:0.392157;" d="M 5.457031 4.34375 C 4.632812 4.34375 3.96875 5.007812 3.96875 5.832031 L 3.96875 6.082031 C 3.96875 5.257812 4.632812 4.59375 5.457031 4.59375 L 42.171875 4.59375 C 42.996094 4.59375 43.660156 5.257812 43.660156 6.082031 L 43.660156 5.832031 C 43.660156 5.007812 42.996094 4.34375 42.171875 4.34375 Z M 5.457031 4.34375 "/>
<path style=" stroke:none;fill-rule:nonzero;fill:rgb(1.176471%,1.176471%,1.176471%);fill-opacity:0.235294;" d="M 5.457031 42.050781 C 4.632812 42.050781 3.96875 41.386719 3.96875 40.5625 L 3.96875 40.3125 C 3.96875 41.136719 4.632812 41.800781 5.457031 41.800781 L 42.171875 41.800781 C 42.996094 41.800781 43.660156 41.136719 43.660156 40.3125 L 43.660156 40.5625 C 43.660156 41.386719 42.996094 42.050781 42.171875 42.050781 Z M 5.457031 42.050781 "/>
<path style=" stroke:none;fill-rule:nonzero;fill:rgb(12.941177%,12.941177%,12.941177%);fill-opacity:1;" d="M 5.457031 4.203125 C 4.558594 4.203125 3.828125 4.933594 3.828125 5.832031 L 3.828125 40.5625 C 3.828125 41.460938 4.558594 42.191406 5.457031 42.191406 L 42.171875 42.191406 C 43.070312 42.191406 43.800781 41.460938 43.800781 40.5625 L 43.800781 5.832031 C 43.800781 4.933594 43.070312 4.203125 42.171875 4.203125 Z M 5.457031 4.484375 L 42.171875 4.484375 C 42.921875 4.484375 43.519531 5.082031 43.519531 5.832031 L 43.519531 40.5625 C 43.519531 41.3125 42.921875 41.910156 42.171875 41.910156 L 5.457031 41.910156 C 4.707031 41.910156 4.109375 41.3125 4.109375 40.5625 L 4.109375 5.832031 C 4.109375 5.082031 4.707031 4.484375 5.457031 4.484375 Z M 5.457031 4.484375 "/>
<path style="fill-rule:nonzero;fill:url(#linear3);stroke-width:11.338583;stroke-linecap:butt;stroke-linejoin:miter;stroke:rgb(12.941177%,12.941177%,12.941177%);stroke-opacity:1;stroke-miterlimit:4;" d="M 830.786849 335.086129 C 752.684067 560.733884 631.750728 930.462375 558.371904 1134.06499 C 564.040655 1135.639643 569.55194 1135.009782 575.378155 1135.167247 C 607.501074 1134.852317 639.623992 1135.167247 671.904376 1135.167247 C 676.155938 1135.167247 675.683542 1128.868636 677.573126 1126.034261 C 716.152121 1016.910817 760.872262 893.300568 799.766188 784.177125 C 802.128167 777.406117 804.647612 770.162714 807.796917 763.706637 C 827.952474 764.021568 847.7931 763.391707 867.948657 763.706637 C 825.74796 882.120532 778.193444 1016.123491 735.362886 1134.06499 C 739.929379 1135.797108 744.338407 1135.009782 749.062366 1135.167247 C 782.759937 1134.852317 816.300043 1135.639643 849.997614 1135.167247 C 888.104213 1027.618457 932.98182 905.26793 971.245884 797.719139 C 979.434079 775.831464 980.536336 747.645178 966.679391 729.694136 C 937.233383 691.430071 871.727824 685.13146 829.369662 683.556807 C 854.721573 611.437706 912.196402 442.634919 949.200744 335.086129 Z M 1076.747626 699.14587 C 1075.9603 700.877988 1075.330438 705.287016 1074.543112 707.019134 C 998.959775 919.124875 867.791191 1293.577325 781.500215 1535.129074 L 877.554039 1535.129074 C 924.321229 1409.156845 995.810469 1215.946939 1024.469151 1136.112039 C 1066.512382 1135.167247 1108.398149 1135.639643 1150.598845 1134.852317 C 1177.367944 1133.907525 1217.679057 1117.846066 1226.654578 1091.706828 C 1262.241733 991.716372 1297.671422 892.670707 1332.15632 792.050389 C 1337.82507 776.933721 1341.131841 760.242401 1336.722813 744.495872 C 1330.581667 724.340316 1312.315694 709.066183 1292.475068 703.554898 C 1275.311352 698.201078 1257.99017 700.563058 1240.196593 700.248127 C 1186.186 700.090662 1130.758219 699.618266 1076.747626 699.14587 Z M 1173.273846 762.60438 C 1192.169681 763.076776 1212.482703 762.446915 1229.961349 762.761846 C 1193.744334 866.216539 1156.897457 969.828697 1121.152837 1073.59832 C 1100.839815 1075.015508 1080.054397 1073.755786 1059.741375 1073.59832 C 1096.588252 970.773489 1132.962733 867.948657 1169.80961 764.808894 C 1170.596937 763.864103 1171.069332 763.076776 1173.273846 762.60438 Z M 1173.273846 762.60438 " transform="matrix(0.0248071,0,0,0.0248071,0,0)"/>
</g>
</svg>
